icon/pk/renault.svg

<svg width="48" height="48" fill="none" xmlns="http://www.w3.org/2000/svg"><path d="M30 4H18L8 24h9l5-10h4l5 10h9L30 4ZM30 44H18L8 24h9l5 10h4l5-10h9L30 44Z" fill="#2F88FF" stroke="#000" stroke-width="4" stroke-linejoin="round"/></svg>

<svg viewBox="0 0 48 48" fill="none" xmlns="http://www.w3.org/2000/svg" height="1em" width="1em">
  <path d="M30 4H18L8 24H17L22 14H26L31 24H40L30 4Z" fill="#2F88FF" stroke="black" stroke-width="4" stroke-linejoin="round"/>
  <path d="M30 44H18L8 24H17L22 34H26L31 24H40L30 44Z" fill="#2F88FF" stroke="black" stroke-width="4" stroke-linejoin="round"/>
</svg>
